modules/MediaScanner/src/test/resources/images/20160206-0172a.xmp
<?xml version="1.0" encoding="utf-8"?>
<x:xmpmeta xmlns:x="adobe:ns:meta/" x:xmptk="Toolkit=IDimager;Version=3.1.2.1;">
  <rdf:RDF xmlns:rdf="http://www.w3.org/1999/02/22-rdf-syntax-ns#">
    <rdf:Description rdf:about="" xmlns:lr="http://ns.adobe.com/lightroom/1.0/">
      <lr:hierarchicalSubject>
        <rdf:Bag>
          <rdf:li>Workflow|edit process 2013-09-14</rdf:li>
          <rdf:li>Workflow|pano</rdf:li>
          <rdf:li>Workflow|tagged</rdf:li>
          <rdf:li>architecture|church|abbey</rdf:li>
          <rdf:li>architecture|church</rdf:li>
          <rdf:li>architecture|courtyard</rdf:li>
          <rdf:li>architecture|pit</rdf:li>
          <rdf:li>geo tags|country:Italy|region:Lazio|province:Provincia di Frosinone|municipality:Veroli|abbey:Abbazia di Casamari</rdf:li>
        </rdf:Bag>
      </lr:hierarchicalSubject>
    </rdf:Description>
    <rdf:Description rdf:about="" xmlns:crs="http://ns.adobe.com/camera-raw-settings/1.0/" crs:Version="9.12" crs:ProcessVersion="6.7" crs:WhiteBalance="As Shot" crs:AutoWhiteVersion="134348800" crs:Temperature="5350" crs:Tint="+25" crs:Saturation="+1" crs:Sharpness="60" crs:LuminanceSmoothing="10" crs:ColorNoiseReduction="25" crs:VignetteAmount="0" crs:ShadowTint="0" crs:RedHue="0" crs:RedSaturation="0" crs:GreenHue="0" crs:GreenSaturation="0" crs:BlueHue="0" crs:BlueSaturation="0" crs:Vibrance="+6" crs:HueAdjustmentRed="0" crs:HueAdjustmentOrange="0" crs:HueAdjustmentYellow="0" crs:HueAdjustmentGreen="0" crs:HueAdjustmentAqua="0" crs:HueAdjustmentBlue="0" crs:HueAdjustmentPurple="0" crs:HueAdjustmentMagenta="0" crs:SaturationAdjustmentRed="0" crs:SaturationAdjustmentOrange="0" crs:SaturationAdjustmentYellow="0" crs:SaturationAdjustmentGreen="0" crs:SaturationAdjustmentAqua="0" crs:SaturationAdjustmentBlue="0" crs:SaturationAdjustmentPurple="0" crs:SaturationAdjustmentMagenta="0" crs:LuminanceAdjustmentRed="0" crs:LuminanceAdjustmentOrange="0" crs:LuminanceAdjustmentYellow="0" crs:LuminanceAdjustmentGreen="0" crs:LuminanceAdjustmentAqua="0" crs:LuminanceAdjustmentBlue="0" crs:LuminanceAdjustmentPurple="0" crs:LuminanceAdjustmentMagenta="0" crs:SplitToningShadowHue="0" crs:SplitToningShadowSaturation="0" crs:SplitToningHighlightHue="0" crs:SplitToningHighlightSaturation="0" crs:SplitToningBalance="0" crs:ParametricShadows="0" crs:ParametricDarks="0" crs:ParametricLights="0" crs:ParametricHighlights="0" crs:ParametricShadowSplit="25" crs:ParametricMidtoneSplit="50" crs:ParametricHighlightSplit="75" crs:SharpenRadius="+1" crs:SharpenDetail="60" crs:SharpenEdgeMasking="20" crs:PostCropVignetteAmount="0" crs:GrainAmount="0" crs:LuminanceNoiseReductionDetail="50" crs:ColorNoiseReductionDetail="50" crs:LuminanceNoiseReductionContrast="0" crs:ColorNoiseReductionSmoothness="50" crs:LensProfileEnable="0" crs:LensManualDistortionAmount="0" crs:PerspectiveVertical="-13" crs:PerspectiveHorizontal="0" crs:PerspectiveRotate="0.0" crs:PerspectiveScale="100" crs:PerspectiveAspect="0" crs:PerspectiveUpright="0" crs:PerspectiveX="0.00" crs:PerspectiveY="0.00" crs:AutoLateralCA="1" crs:Exposure2012="-1" crs:Contrast2012="-33" crs:Highlights2012="-25" crs:Shadows2012="+24" crs:Whites2012="+21" crs:Blacks2012="0" crs:Clarity2012="+46" crs:DefringePurpleAmount="0" crs:DefringePurpleHueLo="30" crs:DefringePurpleHueHi="70" crs:DefringeGreenAmount="0" crs:DefringeGreenHueLo="40" crs:DefringeGreenHueHi="60" crs:Dehaze="0" crs:ToneMapStrength="0" crs:ConvertToGrayscale="False" crs:ToneCurveName="Medium Contrast" crs:ToneCurveName2012="Linear" crs:CameraProfile="FG Sony NEX-6 2700K-8300K v2" crs:LensProfileSetup="LensDefaults" crs:LensProfileName="Adobe (Sony E 16-70mm F4 ZA OSS)" crs:LensProfileFilename="SONY (Sony E 16-70mm F4 ZA OSS) - RAW.lcp" crs:LensProfileDigest="43BA3BAA268ECF5A9907727C57888D73" crs:LensProfileDistortionScale="100" crs:LensProfileChromaticAberrationScale="100" crs:LensProfileVignettingScale="100" crs:UprightVersion="151388160" crs:UprightCenterMode="0" crs:UprightCenterNormX="0.5" crs:UprightCenterNormY="0.5" crs:UprightFocalMode="0" crs:UprightFocalLength35mm="35" crs:UprightPreview="False" crs:UprightTransformCount="6" crs:UprightFourSegmentsCount="0" crs:HasSettings="True" crs:CropTop="0.105523" crs:CropLeft="0.076122" crs:CropBottom="0.905778" crs:CropRight="0.88599" crs:CropAngle="-1.46851" crs:CropConstrainToWarp="1" crs:HasCrop="True" crs:AlreadyApplied="False" crs:RawFileName="20160206-0172a.dng">
      <crs:ToneCurve>
        <rdf:Seq>
          <rdf:li>0, 0</rdf:li>
          <rdf:li>32, 22</rdf:li>
          <rdf:li>64, 56</rdf:li>
          <rdf:li>128, 128</rdf:li>
          <rdf:li>192, 196</rdf:li>
          <rdf:li>255, 255</rdf:li>
        </rdf:Seq>
      </crs:ToneCurve>
      <crs:ToneCurveRed>
        <rdf:Seq>
          <rdf:li>0, 0</rdf:li>
          <rdf:li>255, 255</rdf:li>
        </rdf:Seq>
      </crs:ToneCurveRed>
      <crs:ToneCurveGreen>
        <rdf:Seq>
          <rdf:li>0, 0</rdf:li>
          <rdf:li>255, 255</rdf:li>
        </rdf:Seq>
      </crs:ToneCurveGreen>
      <crs:ToneCurveBlue>
        <rdf:Seq>
          <rdf:li>0, 0</rdf:li>
          <rdf:li>255, 255</rdf:li>
        </rdf:Seq>
      </crs:ToneCurveBlue>
      <crs:ToneCurvePV2012>
        <rdf:Seq>
          <rdf:li>0, 0</rdf:li>
          <rdf:li>255, 255</rdf:li>
        </rdf:Seq>
      </crs:ToneCurvePV2012>
      <crs:ToneCurvePV2012Red>
        <rdf:Seq>
          <rdf:li>0, 0</rdf:li>
          <rdf:li>255, 255</rdf:li>
        </rdf:Seq>
      </crs:ToneCurvePV2012Red>
      <crs:ToneCurvePV2012Green>
        <rdf:Seq>
          <rdf:li>0, 0</rdf:li>
          <rdf:li>255, 255</rdf:li>
        </rdf:Seq>
      </crs:ToneCurvePV2012Green>
      <crs:ToneCurvePV2012Blue>
        <rdf:Seq>
          <rdf:li>0, 0</rdf:li>
          <rdf:li>255, 255</rdf:li>
        </rdf:Seq>
      </crs:ToneCurvePV2012Blue>
    </rdf:Description>
    <rdf:Description rdf:about="" xmlns:Iptc4xmpCore="http://iptc.org/std/Iptc4xmpCore/1.0/xmlns/" Iptc4xmpCore:CountryCode="IT" Iptc4xmpCore:Location="Casamari">
      <Iptc4xmpCore:CreatorContactInfo rdf:parseType="Resource">
        <Iptc4xmpCore:CiAdrPcode>I-16145</Iptc4xmpCore:CiAdrPcode>
        <Iptc4xmpCore:CiEmailWork>email@fabriziogiudici.it</Iptc4xmpCore:CiEmailWork>
        <Iptc4xmpCore:CiAdrRegion>GE</Iptc4xmpCore:CiAdrRegion>
        <Iptc4xmpCore:CiAdrCity>Genoa</Iptc4xmpCore:CiAdrCity>
        <Iptc4xmpCore:CiAdrExtadr>Via Nizza 6/13</Iptc4xmpCore:CiAdrExtadr>
        <Iptc4xmpCore:CiAdrCtry>Italy</Iptc4xmpCore:CiAdrCtry>
        <Iptc4xmpCore:CiUrlWork>http://stoppingdown.net</Iptc4xmpCore:CiUrlWork>
      </Iptc4xmpCore:CreatorContactInfo>
    </rdf:Description>
    <rdf:Description rdf:about="" xmlns:xmpRights="http://ns.adobe.com/xap/1.0/rights/" xmpRights:Marked="True" xmpRights:WebStatement="http://stoppingdown.net">
      <xmpRights:UsageTerms>
        <rdf:Alt>
          <rdf:li xml:lang="x-default">Cannot be used without prior written consent of the author.</rdf:li>
        </rdf:Alt>
      </xmpRights:UsageTerms>
    </rdf:Description>
    <rdf:Description rdf:about="" xmlns:dc="http://purl.org/dc/elements/1.1/" dc:format="application/octet-stream">
      <dc:creator>
        <rdf:Seq>
          <rdf:li>Fabrizio Giudici</rdf:li>
        </rdf:Seq>
      </dc:creator>
      <dc:rights>
        <rdf:Alt>
          <rdf:li xml:lang="x-default">© Copyright by Fabrizio Giudici. All rights reserved.</rdf:li>
        </rdf:Alt>
      </dc:rights>
      <dc:subject>
        <rdf:Bag>
          <rdf:li>abbey</rdf:li>
          <rdf:li>abbey:Abbazia di Casamari</rdf:li>
          <rdf:li>church</rdf:li>
          <rdf:li>courtyard</rdf:li>
          <rdf:li>edit process 2013-09-14</rdf:li>
          <rdf:li>pano</rdf:li>
          <rdf:li>pit</rdf:li>
          <rdf:li>tagged</rdf:li>
        </rdf:Bag>
      </dc:subject>
      <dc:title>
        <rdf:Alt>
          <rdf:li xml:lang="x-default">20160206-0172a</rdf:li>
        </rdf:Alt>
      </dc:title>
    </rdf:Description>
    <rdf:Description rdf:about="" xmlns:xmpMM="http://ns.adobe.com/xap/1.0/mm/" xmpMM:DocumentID="xmp.did:28b2251d-6486-4e3f-a252-489a14e64945" xmpMM:OriginalDocumentID="D09E8CCEC78EAC29CF03009DA0F811DC" xmpMM:InstanceID="xmp.iid:753c722c-8b7d-4667-b8a3-797d3aa246f5" xmpMM:PreservedFileName="20160206-0172a.dng">
      <xmpMM:History>
        <rdf:Seq>
          <rdf:li>
            <rdf:Description rdf:about="" xmlns:stEvt="http://ns.adobe.com/xap/1.0/sType/ResourceEvent#">
              <stEvt:action>saved</stEvt:action>
              <stEvt:instanceID>xmp.iid:c156fd97-413c-45de-9b2d-9ace5357b5c9</stEvt:instanceID>
              <stEvt:when>2016-02-28T20:51:21+01:00</stEvt:when>
              <stEvt:softwareAgent>Adobe Photoshop Lightroom 6.3 (Macintosh)</stEvt:softwareAgent>
              <stEvt:changed>/metadata</stEvt:changed>
            </rdf:Description>
          </rdf:li>
          <rdf:li>
            <rdf:Description rdf:about="" xmlns:stEvt="http://ns.adobe.com/xap/1.0/sType/ResourceEvent#">
              <stEvt:action>derived</stEvt:action>
              <stEvt:parameters>saved to new location</stEvt:parameters>
            </rdf:Description>
          </rdf:li>
          <rdf:li>
            <rdf:Description rdf:about="" xmlns:stEvt="http://ns.adobe.com/xap/1.0/sType/ResourceEvent#">
              <stEvt:action>saved</stEvt:action>
              <stEvt:instanceID>xmp.iid:28b2251d-6486-4e3f-a252-489a14e64945</stEvt:instanceID>
              <stEvt:when>2016-02-28T20:52:02+01:00</stEvt:when>
              <stEvt:softwareAgent>Adobe Photoshop Lightroom 6.3 (Macintosh)</stEvt:softwareAgent>
              <stEvt:changed>/</stEvt:changed>
            </rdf:Description>
          </rdf:li>
          <rdf:li>
            <rdf:Description rdf:about="" xmlns:stEvt="http://ns.adobe.com/xap/1.0/sType/ResourceEvent#">
              <stEvt:action>saved</stEvt:action>
              <stEvt:instanceID>xmp.iid:753c722c-8b7d-4667-b8a3-797d3aa246f5</stEvt:instanceID>
              <stEvt:when>2017-10-26T12:17:53+02:00</stEvt:when>
              <stEvt:softwareAgent>Adobe Photoshop Lightroom 6.12 (Macintosh)</stEvt:softwareAgent>
              <stEvt:changed>/metadata</stEvt:changed>
            </rdf:Description>
          </rdf:li>
        </rdf:Seq>
      </xmpMM:History>
      <xmpMM:DerivedFrom>
        <rdf:Description rdf:about="" xmlns:stRef="http://ns.adobe.com/xap/1.0/sType/ResourceRef#">
          <stRef:instanceID>xmp.iid:c156fd97-413c-45de-9b2d-9ace5357b5c9</stRef:instanceID>
          <stRef:documentID>D09E8CCEC78EAC29CF03009DA0F811DC</stRef:documentID>
          <stRef:originalDocumentID>D09E8CCEC78EAC29CF03009DA0F811DC</stRef:originalDocumentID>
        </rdf:Description>
      </xmpMM:DerivedFrom>
    </rdf:Description>
    <rdf:Description rdf:about="" xmlns:photoshop="http://ns.adobe.com/photoshop/1.0/" photoshop:DateCreated="2016-02-06T15:18:53+01:00" photoshop:Source="Fabrizio Giudici" photoshop:AuthorsPosition="Photographer" photoshop:Credit="Fabrizio Giudici" photoshop:CaptionWriter="Fabrizio Giudici" photoshop:City="Veroli" photoshop:State="Lazio" photoshop:Country="Italia" photoshop:ColorMode="3" photoshop:SidecarForExtension="dng"/>
    <rdf:Description rdf:about="" xmlns:aux="http://ns.adobe.com/exif/1.0/aux/" aux:LensInfo="160/10 700/10 40/10 40/10" aux:Lens="Sony Zeiss Vario-Tessar T* E 16-70mm F4 ZA OSS" aux:LensDistortInfo="33610/32768 -113227910/1073741824 76054681/1073741824 -3482481/1073741824" aux:IsMergedPanorama="True" aux:DistortionCorrectionAlreadyApplied="True" aux:LateralChromaticAberrationCorrectionAlreadyApplied="True" aux:VignetteCorrectionAlreadyApplied="True"/>
    <rdf:Description rdf:about="" xmlns:xmp="http://ns.adobe.com/xap/1.0/" xmp:CreatorTool="Adobe Photoshop Lightroom 6.3 (Macintosh)" xmp:ModifyDate="2016-02-28T20:52:02+01:00" xmp:CreateDate="2016-02-06T15:18:53+01:00" xmp:MetadataDate="2021-08-19T19:28:14.994+02:00" xmp:Rating="3"/>
    <rdf:Description rdf:about="" xmlns:exif="http://ns.adobe.com/exif/1.0/" exif:GPSVersionID="2.2.0.0" exif:GPSLatitude="41,40.268500N" exif:GPSLongitude="13,29.230833E" exif:GPSAltitude="+293.0952" exif:ExposureTime="1/160" exif:FNumber="8/1" exif:ExifVersion="0230" exif:DateTimeOriginal="2016-02-06T15:18:53+01:00" exif:DateTimeDigitized="2016-02-06T15:18:53+01:00" exif:ShutterSpeedValue="7321928/1000000" exif:ApertureValue="6/1" exif:BrightnessValue="21594/2560" exif:ExposureBiasValue="0/10" exif:MaxApertureValue="1024/256" exif:MeteringMode="5" exif:LightSource="0" exif:FocalLength="160/10" exif:FocalPlaneXResolution="68784793/32768" exif:FocalPlaneYResolution="68784793/32768" exif:FocalPlaneResolutionUnit="3" exif:FileSource="3" exif:SceneType="1" exif:CustomRendered="0" exif:ExposureMode="2" exif:WhiteBalance="0" exif:DigitalZoomRatio="16/16" exif:FocalLengthIn35mmFilm="24" exif:SceneCaptureType="0" exif:Contrast="1" exif:Saturation="0" exif:Sharpness="1" exif:ExposureProgram="1" exif:ColorSpace="1" exif:PixelXDimension="256" exif:PixelYDimension="145">
      <exif:ISOSpeedRatings>
        <rdf:Seq>
          <rdf:li>100</rdf:li>
        </rdf:Seq>
      </exif:ISOSpeedRatings>
      <exif:Flash rdf:parseType="Resource">
        <exif:Fired>False</exif:Fired>
        <exif:Return>0</exif:Return>
        <exif:Mode>2</exif:Mode>
        <exif:Function>True</exif:Function>
        <exif:RedEyeMode>False</exif:RedEyeMode>
      </exif:Flash>
    </rdf:Description>
    <rdf:Description rdf:about="" xmlns:tiff="http://ns.adobe.com/tiff/1.0/" tiff:ImageWidth="256" tiff:ImageLength="145" tiff:Compression="1" tiff:PhotometricInterpretation="2" tiff:Make="SONY" tiff:Model="NEX-6" tiff:Orientation="1" tiff:SamplesPerPixel="3" tiff:PlanarConfiguration="1" tiff:Software="Adobe Photoshop Lightroom 6.3 (Macintosh)" tiff:DateTime="2016-02-06T15:18:53+01:00" tiff:Artist="Fabrizio Giudici">
      <tiff:BitsPerSample>
        <rdf:Seq>
          <rdf:li>8</rdf:li>
        </rdf:Seq>
      </tiff:BitsPerSample>
      <tiff:Copyright>
        <rdf:Alt>
          <rdf:li xml:lang="x-default">© Copyright by Fabrizio Giudici. All rights reserved.</rdf:li>
        </rdf:Alt>
      </tiff:Copyright>
    </rdf:Description>
    <rdf:Description rdf:about="" xmlns:exifEX="http://cipa.jp/exif/1.0/" exifEX:LensModel="E 16-70mm F4 ZA OSS">
      <exifEX:LensSpecification>
        <rdf:Bag>
          <rdf:li>16/1</rdf:li>
          <rdf:li>70/1</rdf:li>
          <rdf:li>4/1</rdf:li>
          <rdf:li>4/1</rdf:li>
        </rdf:Bag>
      </exifEX:LensSpecification>
    </rdf:Description>
    <rdf:Description rdf:about="" xmlns:idimager="http://ns.idimager.com/idimager/1.0/" idimager:xmp_initialized="1"/>
    <rdf:Description rdf:about="" xmlns:Iptc4xmpExt="http://iptc.org/std/Iptc4xmpExt/2008-02-29/">
      <Iptc4xmpExt:LocationCreated>
        <rdf:Bag>
          <rdf:li>
            <rdf:Description rdf:about="" xmlns:Iptc4xmpExt="http://iptc.org/std/Iptc4xmpExt/2008-02-29/">
              <Iptc4xmpExt:City>Veroli</Iptc4xmpExt:City>
              <Iptc4xmpExt:ProvinceState>Lazio</Iptc4xmpExt:ProvinceState>
              <Iptc4xmpExt:CountryName>Italia</Iptc4xmpExt:CountryName>
              <Iptc4xmpExt:Sublocation>Casamari</Iptc4xmpExt:Sublocation>
            </rdf:Description>
          </rdf:li>
        </rdf:Bag>
      </Iptc4xmpExt:LocationCreated>
      <Iptc4xmpExt:LocationShown>
        <rdf:Bag>
          <rdf:li>
            <rdf:Description rdf:about="" xmlns:Iptc4xmpExt="http://iptc.org/std/Iptc4xmpExt/2008-02-29/">
              <Iptc4xmpExt:City>Veroli</Iptc4xmpExt:City>
              <Iptc4xmpExt:ProvinceState>Lazio</Iptc4xmpExt:ProvinceState>
              <Iptc4xmpExt:CountryName>Italia</Iptc4xmpExt:CountryName>
              <Iptc4xmpExt:Sublocation>Casamari</Iptc4xmpExt:Sublocation>
            </rdf:Description>
          </rdf:li>
        </rdf:Bag>
      </Iptc4xmpExt:LocationShown>
    </rdf:Description>
    <rdf:Description rdf:about="" xmlns:MicrosoftPhoto="http://ns.microsoft.com/photo/1.0/" MicrosoftPhoto:LensModel="Sony Zeiss Vario-Tessar T* E 16-70mm F4 ZA OSS" MicrosoftPhoto:Rating="50"/>
    <rdf:Description rdf:about="" xmlns:ics="http://ns.idimager.com/ics/1.0/" ics:ImageRef="8254EC82B0A07E39241D825D9A1F5E78" ics:StackOrder="0" ics:AppVersion="IDimagerSU 6.4.0.3852" ics:TimeStamp="2021-08-19T19:28:14.551+02:00">
      <ics:TagStructure>
        <rdf:Bag>
          <rdf:li rdf:parseType="Resource">
            <ics:Reference>94FFC64E7D222969B95FC85D14E63222</ics:Reference>
            <ics:LabelName>Workflow</ics:LabelName>
            <ics:SubLabels>
              <rdf:Bag>
                <rdf:li rdf:parseType="Resource">
                  <ics:Reference>10C493089BA0C4BAA4202B74DF433CDA</ics:Reference>
                  <ics:LabelName>edit process 2013-09-14</ics:LabelName>
                </rdf:li>
                <rdf:li rdf:parseType="Resource">
                  <ics:Reference>97CA0E5DD074DB5335656930A9FF4FB3</ics:Reference>
                  <ics:LabelName>pano</ics:LabelName>
                </rdf:li>
                <rdf:li rdf:parseType="Resource">
                  <ics:Reference>69CD2295AB5F50378CD95403D3A972CB</ics:Reference>
                  <ics:LabelName>tagged</ics:LabelName>
                </rdf:li>
              </rdf:Bag>
            </ics:SubLabels>
          </rdf:li>
          <rdf:li rdf:parseType="Resource">
            <ics:Reference>98D075E81ADC9C0AEC120E0671510F9D</ics:Reference>
            <ics:LabelName>architecture</ics:LabelName>
            <ics:SubLabels>
              <rdf:Bag>
                <rdf:li rdf:parseType="Resource">
                  <ics:Reference>49B7BD1413F03698A49A0972C0A683DF</ics:Reference>
                  <ics:LabelName>church</ics:LabelName>
                  <ics:SubLabels>
                    <rdf:Bag>
                      <rdf:li rdf:parseType="Resource">
                        <ics:Reference>6BB86CE0F11775DB7706301AE28009A5</ics:Reference>
                        <ics:LabelName>abbey</ics:LabelName>
                      </rdf:li>
                    </rdf:Bag>
                  </ics:SubLabels>
                </rdf:li>
                <rdf:li rdf:parseType="Resource">
                  <ics:Reference>F4FE7653CB7E8E7CFFB5E276B7CF7764</ics:Reference>
                  <ics:LabelName>courtyard</ics:LabelName>
                </rdf:li>
                <rdf:li rdf:parseType="Resource">
                  <ics:Reference>FBE76944811931AF08AF25CEB5933272</ics:Reference>
                  <ics:LabelName>pit</ics:LabelName>
                </rdf:li>
              </rdf:Bag>
            </ics:SubLabels>
          </rdf:li>
          <rdf:li rdf:parseType="Resource">
            <ics:Reference>338A62DBDFF06C1D2713D20AA986904B</ics:Reference>
            <ics:LabelName>geo tags</ics:LabelName>
            <ics:SubLabels>
              <rdf:Bag>
                <rdf:li rdf:parseType="Resource">
                  <ics:Reference>C2BE99FA1FE8B1FC479D8DBB850C4798</ics:Reference>
                  <ics:LabelName>country:Italy</ics:LabelName>
                  <ics:SubLabels>
                    <rdf:Bag>
                      <rdf:li rdf:parseType="Resource">
                        <ics:Reference>18DD47E2FD9FDCDAD3A73950D4BC46B0</ics:Reference>
                        <ics:LabelName>region:Lazio</ics:LabelName>
                        <ics:SubLabels>
                          <rdf:Bag>
                            <rdf:li rdf:parseType="Resource">
                              <ics:Reference>C41F64A447605AB3CDCC3F1ADF22ECAE</ics:Reference>
                              <ics:LabelName>province:Provincia di Frosinone</ics:LabelName>
                              <ics:SubLabels>
                                <rdf:Bag>
                                  <rdf:li rdf:parseType="Resource">
                                    <ics:Reference>7F10E4483A1A120469AED95003BBBBCB</ics:Reference>
                                    <ics:LabelName>municipality:Veroli</ics:LabelName>
                                    <ics:SubLabels>
                                      <rdf:Bag>
                                        <rdf:li rdf:parseType="Resource">
                                          <ics:Reference>A30C94D5FAD0BFD1FDDD17E1CEF5C61F</ics:Reference>
                                          <ics:LabelName>abbey:Abbazia di Casamari</ics:LabelName>
                                        </rdf:li>
                                      </rdf:Bag>
                                    </ics:SubLabels>
                                  </rdf:li>
                                </rdf:Bag>
                              </ics:SubLabels>
                            </rdf:li>
                          </rdf:Bag>
                        </ics:SubLabels>
                      </rdf:li>
                    </rdf:Bag>
                  </ics:SubLabels>
                </rdf:li>
              </rdf:Bag>
            </ics:SubLabels>
          </rdf:li>
          <rdf:li rdf:parseType="Resource">
            <ics:Reference>{EF40C002-483E-4816-8A5D-8FDEBE0A4914}</ics:Reference>
            <ics:LabelName>Places</ics:LabelName>
            <ics:SubLabels>
              <rdf:Bag>
                <rdf:li rdf:parseType="Resource">
                  <ics:Reference>B95BA1018718999736A4D4D41BDE8351</ics:Reference>
                  <ics:LabelName>Italia</ics:LabelName>
                  <ics:SubLabels>
                    <rdf:Bag>
                      <rdf:li rdf:parseType="Resource">
                        <ics:Reference>FA476B348A93F28A61B69D96B4D0B43A</ics:Reference>
                        <ics:LabelName>Lazio</ics:LabelName>
                        <ics:SubLabels>
                          <rdf:Bag>
                            <rdf:li rdf:parseType="Resource">
                              <ics:Reference>7F708F76F29937E8129C761DBF05FF9F</ics:Reference>
                              <ics:LabelName>Veroli</ics:LabelName>
                              <ics:SubLabels>
                                <rdf:Bag>
                                  <rdf:li rdf:parseType="Resource">
                                    <ics:Reference>1B4E16E8593B9C79689549F05E6461E6</ics:Reference>
                                    <ics:LabelName>Casamari</ics:LabelName>
                                  </rdf:li>
                                </rdf:Bag>
                              </ics:SubLabels>
                            </rdf:li>
                          </rdf:Bag>
                        </ics:SubLabels>
                      </rdf:li>
                    </rdf:Bag>
                  </ics:SubLabels>
                </rdf:li>
              </rdf:Bag>
            </ics:SubLabels>
          </rdf:li>
        </rdf:Bag>
      </ics:TagStructure>
    </rdf:Description>
  </rdf:RDF>
</x:xmpmeta>
