modules/MediaScanner/src/test/resources/images/20180520-0261.xmp
<?xml version="1.0" encoding="utf-8"?>
<x:xmpmeta xmlns:x="adobe:ns:meta/" x:xmptk="Toolkit=IDimager;Version=3.1.2.1;">
  <rdf:RDF xmlns:rdf="http://www.w3.org/1999/02/22-rdf-syntax-ns#">
    <rdf:Description rdf:about="" xmlns:Iptc4xmpCore="http://iptc.org/std/Iptc4xmpCore/1.0/xmlns/">
      <Iptc4xmpCore:CreatorContactInfo rdf:parseType="Resource">
        <Iptc4xmpCore:CiAdrPcode>I-16145</Iptc4xmpCore:CiAdrPcode>
        <Iptc4xmpCore:CiEmailWork>email@fabriziogiudici.it</Iptc4xmpCore:CiEmailWork>
        <Iptc4xmpCore:CiAdrRegion>GE</Iptc4xmpCore:CiAdrRegion>
        <Iptc4xmpCore:CiAdrCity>Genoa</Iptc4xmpCore:CiAdrCity>
        <Iptc4xmpCore:CiAdrExtadr>Via Nizza 6/13</Iptc4xmpCore:CiAdrExtadr>
        <Iptc4xmpCore:CiAdrCtry>Italy</Iptc4xmpCore:CiAdrCtry>
        <Iptc4xmpCore:CiUrlWork>http://stoppingdown.net</Iptc4xmpCore:CiUrlWork>
      </Iptc4xmpCore:CreatorContactInfo>
    </rdf:Description>
    <rdf:Description rdf:about="" xmlns:xmpRights="http://ns.adobe.com/xap/1.0/rights/" xmpRights:Marked="True" xmpRights:WebStatement="http://stoppingdown.net">
      <xmpRights:UsageTerms>
        <rdf:Alt>
          <rdf:li xml:lang="x-default">Cannot be used without prior written consent of the author.</rdf:li>
        </rdf:Alt>
      </xmpRights:UsageTerms>
    </rdf:Description>
    <rdf:Description rdf:about="" xmlns:xmpMM="http://ns.adobe.com/xap/1.0/mm/" xmpMM:DocumentID="537586003D83F9ED20E1E2AA1CC17C26" xmpMM:OriginalDocumentID="537586003D83F9ED20E1E2AA1CC17C26" xmpMM:InstanceID="xmp.iid:066315bf-0d7e-4336-ab26-40a15985852d" xmpMM:PreservedFileName="20180520-0261.ARW">
      <xmpMM:History>
        <rdf:Seq>
          <rdf:li>
            <rdf:Description rdf:about="" xmlns:stEvt="http://ns.adobe.com/xap/1.0/sType/ResourceEvent#">
              <stEvt:action>saved</stEvt:action>
              <stEvt:instanceID>xmp.iid:066315bf-0d7e-4336-ab26-40a15985852d</stEvt:instanceID>
              <stEvt:when>2018-09-24T12:34:48+02:00</stEvt:when>
              <stEvt:softwareAgent>Adobe Photoshop Lightroom 6.12 (Macintosh)</stEvt:softwareAgent>
              <stEvt:changed>/metadata</stEvt:changed>
            </rdf:Description>
          </rdf:li>
        </rdf:Seq>
      </xmpMM:History>
    </rdf:Description>
    <rdf:Description rdf:about="" xmlns:photoshop="http://ns.adobe.com/photoshop/1.0/" photoshop:DateCreated="2018-05-20T16:12:06+02:00" photoshop:Source="Fabrizio Giudici" photoshop:AuthorsPosition="Photographer" photoshop:Credit="Fabrizio Giudici" photoshop:CaptionWriter="Fabrizio Giudici" photoshop:SidecarForExtension="ARW" photoshop:EmbeddedXMPDigest="00000000000000000000000000000000"/>
    <rdf:Description rdf:about="" xmlns:aux="http://ns.adobe.com/exif/1.0/aux/" aux:LensInfo="700/10 2000/10 40/10 40/10" aux:Lens="Sony FE 70-200mm F4 G OSS"/>
    <rdf:Description rdf:about="" xmlns:xmp="http://ns.adobe.com/xap/1.0/" xmp:CreatorTool="ILCE-6300 v1.10" xmp:ModifyDate="2018-05-20T16:12:06+02:00" xmp:CreateDate="2018-05-20T16:12:06+02:00" xmp:MetadataDate="2021-08-19T14:15:45.934+02:00" xmp:Rating="0"/>
    <rdf:Description rdf:about="" xmlns:dc="http://purl.org/dc/elements/1.1/" dc:format="application/octet-stream">
      <dc:creator>
        <rdf:Seq>
          <rdf:li>Fabrizio Giudici</rdf:li>
        </rdf:Seq>
      </dc:creator>
      <dc:rights>
        <rdf:Alt>
          <rdf:li xml:lang="x-default">© Copyright by Fabrizio Giudici. All rights reserved.</rdf:li>
        </rdf:Alt>
      </dc:rights>
    </rdf:Description>
    <rdf:Description rdf:about="" xmlns:exif="http://ns.adobe.com/exif/1.0/" exif:ExifVersion="0230" exif:ExposureTime="1/320" exif:ShutterSpeedValue="8321928/1000000" exif:FNumber="8/1" exif:ApertureValue="6/1" exif:ExposureProgram="3" exif:SensitivityType="2" exif:RecommendedExposureIndex="250" exif:BrightnessValue="26254/2560" exif:ExposureBiasValue="13/10" exif:MaxApertureValue="1024/256" exif:MeteringMode="5" exif:LightSource="1" exif:FocalLength="2000/10" exif:FileSource="3" exif:SceneType="1" exif:FocalLengthIn35mmFilm="300" exif:CustomRendered="0" exif:ExposureMode="2" exif:WhiteBalance="1" exif:SceneCaptureType="0" exif:Contrast="0" exif:Saturation="0" exif:Sharpness="0" exif:DigitalZoomRatio="16/16" exif:FocalPlaneXResolution="83662979/32768" exif:FocalPlaneYResolution="83662979/32768" exif:FocalPlaneResolutionUnit="3" exif:DateTimeOriginal="2018-05-20T16:12:06+02:00" exif:PixelXDimension="6000" exif:PixelYDimension="4000">
      <exif:ISOSpeedRatings>
        <rdf:Seq>
          <rdf:li>250</rdf:li>
        </rdf:Seq>
      </exif:ISOSpeedRatings>
      <exif:Flash rdf:parseType="Resource">
        <exif:Fired>False</exif:Fired>
        <exif:Return>0</exif:Return>
        <exif:Mode>2</exif:Mode>
        <exif:Function>False</exif:Function>
        <exif:RedEyeMode>False</exif:RedEyeMode>
      </exif:Flash>
    </rdf:Description>
    <rdf:Description rdf:about="" xmlns:tiff="http://ns.adobe.com/tiff/1.0/" tiff:Make="SONY" tiff:Model="ILCE-6300" tiff:Orientation="1" tiff:ImageWidth="6000" tiff:ImageLength="4000"/>
    <rdf:Description rdf:about="" xmlns:crs="http://ns.adobe.com/camera-raw-settings/1.0/" crs:Version="9.12" crs:ProcessVersion="6.7" crs:WhiteBalance="As Shot" crs:AutoWhiteVersion="134348800" crs:Temperature="4800" crs:Tint="+11" crs:Saturation="0" crs:Sharpness="60" crs:LuminanceSmoothing="20" crs:ColorNoiseReduction="25" crs:VignetteAmount="0" crs:ShadowTint="0" crs:RedHue="0" crs:RedSaturation="0" crs:GreenHue="0" crs:GreenSaturation="0" crs:BlueHue="0" crs:BlueSaturation="0" crs:Vibrance="0" crs:HueAdjustmentRed="0" crs:HueAdjustmentOrange="0" crs:HueAdjustmentYellow="0" crs:HueAdjustmentGreen="0" crs:HueAdjustmentAqua="0" crs:HueAdjustmentBlue="0" crs:HueAdjustmentPurple="0" crs:HueAdjustmentMagenta="0" crs:SaturationAdjustmentRed="0" crs:SaturationAdjustmentOrange="0" crs:SaturationAdjustmentYellow="0" crs:SaturationAdjustmentGreen="0" crs:SaturationAdjustmentAqua="0" crs:SaturationAdjustmentBlue="0" crs:SaturationAdjustmentPurple="0" crs:SaturationAdjustmentMagenta="0" crs:LuminanceAdjustmentRed="0" crs:LuminanceAdjustmentOrange="0" crs:LuminanceAdjustmentYellow="0" crs:LuminanceAdjustmentGreen="0" crs:LuminanceAdjustmentAqua="0" crs:LuminanceAdjustmentBlue="0" crs:LuminanceAdjustmentPurple="0" crs:LuminanceAdjustmentMagenta="0" crs:SplitToningShadowHue="0" crs:SplitToningShadowSaturation="0" crs:SplitToningHighlightHue="0" crs:SplitToningHighlightSaturation="0" crs:SplitToningBalance="0" crs:ParametricShadows="0" crs:ParametricDarks="0" crs:ParametricLights="0" crs:ParametricHighlights="0" crs:ParametricShadowSplit="25" crs:ParametricMidtoneSplit="50" crs:ParametricHighlightSplit="75" crs:SharpenRadius="+1" crs:SharpenDetail="60" crs:SharpenEdgeMasking="10" crs:PostCropVignetteAmount="0" crs:GrainAmount="0" crs:LuminanceNoiseReductionDetail="50" crs:ColorNoiseReductionDetail="50" crs:LuminanceNoiseReductionContrast="0" crs:ColorNoiseReductionSmoothness="50" crs:LensProfileEnable="1" crs:LensManualDistortionAmount="0" crs:PerspectiveVertical="0" crs:PerspectiveHorizontal="0" crs:PerspectiveRotate="0.0" crs:PerspectiveScale="100" crs:PerspectiveAspect="0" crs:PerspectiveUpright="0" crs:PerspectiveX="0.00" crs:PerspectiveY="0.00" crs:AutoLateralCA="1" crs:Exposure2012="-1" crs:Contrast2012="-33" crs:Highlights2012="0" crs:Shadows2012="0" crs:Whites2012="0" crs:Blacks2012="0" crs:Clarity2012="+5" crs:DefringePurpleAmount="0" crs:DefringePurpleHueLo="30" crs:DefringePurpleHueHi="70" crs:DefringeGreenAmount="0" crs:DefringeGreenHueLo="40" crs:DefringeGreenHueHi="60" crs:Dehaze="0" crs:ToneMapStrength="0" crs:ConvertToGrayscale="False" crs:ToneCurveName="Medium Contrast" crs:ToneCurveName2012="Linear" crs:CameraProfile="FG Sony A6000 2700K-7000K v4" crs:LensProfileSetup="LensDefaults" crs:LensProfileName="Adobe (Sony FE 70-200mm F4 G OSS)" crs:LensProfileFilename="SONY (Sony FE 70-200mm F4 G OSS) - RAW.lcp" crs:LensProfileDigest="DCDE23417A2E435B8AB12591D43C1EB3" crs:LensProfileDistortionScale="100" crs:LensProfileChromaticAberrationScale="100" crs:LensProfileVignettingScale="100" crs:UprightVersion="151388160" crs:UprightCenterMode="0" crs:UprightCenterNormX="0.5" crs:UprightCenterNormY="0.5" crs:UprightFocalMode="0" crs:UprightFocalLength35mm="35" crs:UprightPreview="False" crs:UprightTransformCount="6" crs:UprightFourSegmentsCount="0" crs:HasSettings="True" crs:AlreadyApplied="False" crs:RawFileName="20180520-0261.ARW">
      <crs:ToneCurve>
        <rdf:Seq>
          <rdf:li>0, 0</rdf:li>
          <rdf:li>32, 22</rdf:li>
          <rdf:li>64, 56</rdf:li>
          <rdf:li>128, 128</rdf:li>
          <rdf:li>192, 196</rdf:li>
          <rdf:li>255, 255</rdf:li>
        </rdf:Seq>
      </crs:ToneCurve>
      <crs:ToneCurveRed>
        <rdf:Seq>
          <rdf:li>0, 0</rdf:li>
          <rdf:li>255, 255</rdf:li>
        </rdf:Seq>
      </crs:ToneCurveRed>
      <crs:ToneCurveGreen>
        <rdf:Seq>
          <rdf:li>0, 0</rdf:li>
          <rdf:li>255, 255</rdf:li>
        </rdf:Seq>
      </crs:ToneCurveGreen>
      <crs:ToneCurveBlue>
        <rdf:Seq>
          <rdf:li>0, 0</rdf:li>
          <rdf:li>255, 255</rdf:li>
        </rdf:Seq>
      </crs:ToneCurveBlue>
      <crs:ToneCurvePV2012>
        <rdf:Seq>
          <rdf:li>0, 0</rdf:li>
          <rdf:li>255, 255</rdf:li>
        </rdf:Seq>
      </crs:ToneCurvePV2012>
      <crs:ToneCurvePV2012Red>
        <rdf:Seq>
          <rdf:li>0, 0</rdf:li>
          <rdf:li>255, 255</rdf:li>
        </rdf:Seq>
      </crs:ToneCurvePV2012Red>
      <crs:ToneCurvePV2012Green>
        <rdf:Seq>
          <rdf:li>0, 0</rdf:li>
          <rdf:li>255, 255</rdf:li>
        </rdf:Seq>
      </crs:ToneCurvePV2012Green>
      <crs:ToneCurvePV2012Blue>
        <rdf:Seq>
          <rdf:li>0, 0</rdf:li>
          <rdf:li>255, 255</rdf:li>
        </rdf:Seq>
      </crs:ToneCurvePV2012Blue>
    </rdf:Description>
    <rdf:Description rdf:about="" xmlns:ics="http://ns.idimager.com/ics/1.0/" ics:ImageRef="BFAE0C8292019D4B1BC5A4E02DFB15CE" ics:StackOrder="0" ics:AppVersion="IDimagerSU 6.4.0.3852" ics:TimeStamp="2021-08-19T14:15:45.879+02:00"/>
    <rdf:Description rdf:about="" xmlns:MicrosoftPhoto="http://ns.microsoft.com/photo/1.0/" MicrosoftPhoto:LensModel="Sony FE 70-200mm F4 G OSS" MicrosoftPhoto:Rating="0"/>
  </rdf:RDF>
</x:xmpmeta>
 
